icons/dice-16.svg

<svg width="16" height="16" viewBox="0 0 16 16" fill="none" xmlns="http://www.w3.org/2000/svg">
<path d="M13.25 1C14.216 1 15 1.784 15 2.75V13.25C15 13.7141 14.8156 14.1592 14.4874 14.4874C14.1592 14.8156 13.7141 15 13.25 15H2.75C2.28587 15 1.84075 14.8156 1.51256 14.4874C1.18437 14.1592 1 13.7141 1 13.25V2.75C1 1.784 1.784 1 2.75 1H13.25ZM2.75 2.5C2.6837 2.5 2.62011 2.52634 2.57322 2.57322C2.52634 2.62011 2.5 2.6837 2.5 2.75V13.25C2.5 13.388 2.612 13.5 2.75 13.5H13.25C13.3163 13.5 13.3799 13.4737 13.4268 13.4268C13.4737 13.3799 13.5 13.3163 13.5 13.25V2.75C13.5 2.6837 13.4737 2.62011 13.4268 2.57322C13.3799 2.52634 13.3163 2.5 13.25 2.5H2.75Z" fill="black"/>
<path d="M5 12C5.55228 12 6 11.5523 6 11C6 10.4477 5.55228 10 5 10C4.44772 10 4 10.4477 4 11C4 11.5523 4.44772 12 5 12Z" fill="black"/>
<path d="M11 6C11.5523 6 12 5.55228 12 5C12 4.44772 11.5523 4 11 4C10.4477 4 10 4.44772 10 5C10 5.55228 10.4477 6 11 6Z" fill="black"/>
<path d="M8 9C8.55228 9 9 8.55228 9 8C9 7.44772 8.55228 7 8 7C7.44772 7 7 7.44772 7 8C7 8.55228 7.44772 9 8 9Z" fill="black"/>
</svg>

<svg xmlns="http://www.w3.org/2000/svg" width="16" height="16" viewBox="0 0 16 16"><path d="M13.25 1c.966 0 1.75.784 1.75 1.75v10.5c0 .464-.184.909-.513 1.237A1.746 1.746 0 0 1 13.25 15H2.75c-.464 0-.909-.184-1.237-.513A1.746 1.746 0 0 1 1 13.25V2.75C1 1.784 1.784 1 2.75 1h10.5ZM2.75 2.5a.25.25 0 0 0-.25.25v10.5c0 .138.112.25.25.25h10.5a.25.25 0 0 0 .25-.25V2.75a.25.25 0 0 0-.25-.25H2.75Z"/><path d="M5 12a1 1 0 1 0 0-2 1 1 0 0 0 0 2Zm6-6a1 1 0 1 0 0-2 1 1 0 0 0 0 2ZM8 9a1 1 0 1 0 0-2 1 1 0 0 0 0 2Z"/></svg>
